icons-dark/mimetypes/16/application-vnd.oasis.opendocument.chart.svg

<svg width="16" xmlns="http://www.w3.org/2000/svg" height="16" viewBox="0 0 16 16">
 <path fill="#22a7f0" d="m12 2v10h1v-10zm-6 3v7h1v-7zm3 3v4h1v-4zm-6 2v2h1v-2zm-1 3v1h12v-1z"/>
</svg>

<?xml version="1.0" encoding="UTF-8" standalone="no"?>

<!-- Created with Inkscape (http://www.inkscape.org/) -->
<svg width="16" version="1.1" xmlns="http://www.w3.org/2000/svg" height="16" viewBox="0 0 16 16" xmlns:inkscape="http://www.inkscape.org/namespaces/inkscape">
 <defs id="defs4"/>
 <metadata id="metadata7"/>
 <path inkscape:label="Capa 1" inkscape:groupmode="layer" style="fill:#22a7f0" id="rect4208" d="M 12 2 L 12 12 L 13 12 L 13 2 L 12 2 z M 6 5 L 6 12 L 7 12 L 7 5 L 6 5 z M 9 8 L 9 12 L 10 12 L 10 8 L 9 8 z M 3 10 L 3 12 L 4 12 L 4 10 L 3 10 z M 2 13 L 2 14 L 14 14 L 14 13 L 2 13 z "/>
</svg>
